_includes/jt.svg

<svg {% if include.class %}class="{{ include.class }}"{% endif %}{% if include.id %}id="{{ include.id }}"{% endif %} viewBox="0 0 180 180" xmlns="http://www.w3.org/2000/svg">
  <path fill="currentColor" d="M90,0 C139.705627,0 180,40.2943725 180,90 C180,139.705627 139.705627,180 90,180 C40.2943725,180 0,139.705627 0,90 C0,40.2943725 40.2943725,0 90,0 Z M83,57 L48,57 L48,68 L70,68 L70,106.993 L69.9882675,106.999204 C69.99606,107.165157 70,107.332119 70,107.5 C70,113.29899 65.2989899,118 59.5,118 C53.7010101,118 49,113.29899 49,107.5 L49.002944,107.248879 L49.002944,107.248879 L49.0117325,106.999204 L35,107 C35,119.150264 45.745166,129 59,129 C72.1222857,129 82.7848457,119.346274 82.9967847,107.36381 L83,107 L83,57 Z M145,57 L89,57 L89,68 L111,68 L111,128 L123,128 L123,68 L145,68 L145,57 Z"/>
</svg>

<svg {% if include.class %}class="{{ include.class }}"{% endif %}{% if include.id %}id="{{ include.id }}"{% endif %} viewBox="0 0 180 180" xmlns="http://www.w3.org/2000/svg">
	<path d="M0 0h180v180H0V0Zm83 57H48v11h22v39.5a10.5 10.5 0 1 1-21 0v-.5H35c0 12.2 10.7 22 24 22 13.1 0 23.8-9.7 24-21.6V57Zm62 0H89v11h22v60h12V68h22V57Z" fill="#000"/>
</svg>
